X:233
T:Polska efter Rydin
T:(SvL Halland 233)
R:Polska
S:Johannes Erlandson
S:Johan Petter Rydin
O:Gunnarp, Halland
B:Svenska Låtar Halland
M:3/4
L:1/8
K:D
A|A2 d2 f>e|({ef}e)>d f>d A>G|F>A d2 f>e|(e/f/)e/d/ f2 z2:|
|:A|A2 GB AF|A2 ((3BAB) FG|A2 GB AF|A2 ((3BAB) FG|
A(A d2) fe|(ec) d2 z2:|

